X: 1019
T: Almond Tree, The
R: jig
M: 6/8
K: Aminor
d|:eAA cAe|Ace dBG|A3 cAe|g3 dBG|
eAA cAe|Ace dBG|cAe dBg|dBG A2d:|
|:eaa g2e|eag edc|A3 cAe|Ace dBG|
eaa g2e|age edc|dBg dBG|ABG A3:|

